astro/public/img/icons/oauth.svg

<?xml version="1.0" encoding="UTF-8"?>
<svg width="70px" height="70px" viewBox="0 0 70 70" version="1.1" xmlns="http://www.w3.org/2000/svg" xmlns:xlink="http://www.w3.org/1999/xlink">
    <title>OAuth</title>
    <defs>
        <linearGradient x1="14.5429363%" y1="0%" x2="85.4570637%" y2="100%" id="linearGradient-1">
            <stop stop-color="#A4AEBE" offset="0%"></stop>
            <stop stop-color="#2D53F5" offset="100%"></stop>
        </linearGradient>
    </defs>
    <g id="OAuth" stroke="none" stroke-width="1" fill="none" fill-rule="evenodd" stroke-linejoin="round">
        <path d="M52.3938067,64 C49.5260064,64 47.0093041,62.1491569 46.1309826,59.3942714 L42.936751,49.4756508 L26.9575243,49.4756508 L23.9896737,59.3038203 C23.0938318,62.1122714 20.5579955,63.992247 17.6754412,63.992247 C16.9833885,63.992247 16.2959463,63.8806512 15.6322488,63.6612188 C12.1867388,62.6070513 10.2306869,58.8276005 11.2862864,55.2410341 L24.7737081,11.7015831 C25.6494938,8.93189677 28.2277477,7 31.0441398,7 L38.2159459,7 C41.0482445,7 43.626268,8.89900542 44.4849943,11.6181801 L58.66931,55.1414203 C59.8035204,58.6997942 57.9253879,62.5196543 54.4849496,63.6609842 C53.8046538,63.8860546 53.1013051,64 52.3938067,64 L52.3938067,64 L52.3938067,64 Z" id="Path" stroke="url(#linearGradient-1)" stroke-width="3.564" fill-rule="nonzero"></path>
    </g>
</svg>

<svg xmlns="http://www.w3.org/2000/svg" width="70" height="70"><defs><linearGradient id="a" x1="14.543%" x2="85.457%" y1="0%" y2="100%"><stop offset="0%" stop-color="#A4AEBE"/><stop offset="100%" stop-color="#2D53F5"/></linearGradient></defs><path fill="none" stroke="url(#a)" stroke-linejoin="round" stroke-width="3.564" d="M52.394 64c-2.868 0-5.385-1.85-6.263-4.606l-3.194-9.918h-15.98l-2.967 9.828c-.896 2.808-3.432 4.688-6.315 4.688a6.5 6.5 0 0 1-2.043-.33c-3.445-1.055-5.401-4.834-4.346-8.421l13.488-43.54C25.649 8.932 28.228 7 31.044 7h7.172c2.832 0 5.41 1.899 6.269 4.618l14.184 43.523c1.135 3.559-.744 7.379-4.184 8.52a6.646 6.646 0 0 1-2.091.339Z"/></svg>
